X: 2233
T: the PRATIES ARE DUG
Q: "Irish Jig."
R: Jig.
%R: jig
B: James Kerr "Merry Melodies" v.2 p.26 #233
Z: 2016 John Chambers <jc:trillian.mit.edu>
M: 6/8
L: 1/8
K: D
uA |\
def edB | ABG FED | FAA AFA | Bee edB |\
def edB | ABG FED | FAA AFA | Bdd d2 :|
|: ug |\
faa agf | gbb bag | faa agf | gfg e2ug |\
faa agf | gbb bag | fed eag | fdd d2 :|
